/* XPM */
static char *Coin1[] = {
"64 64 4 1",
". c #FF00FF",
"Y c #FFD24A",
"y c #B8860B",
"w c #FFF3B0",
"................................................................",
"................................................................",
"................................................................",
"................................................................",
"................................................................",
"................................................................",
"................................y...............................",
".........................yyyyyyyyyyyyyyy........................",
".......................yyyyyyyyyyyyyyyyyyy......................",
"....................yyyyyyyyyyyyyyyyyyyyyyyyy...................",
"...................yyyyyyyyyyyyYYYyyyyyyyyyyyy..................",
".................yyyyyyyyyYYYYYYYYYYYYYyyyyyyyyy................",
"................yyyyyyywwwYYYYYYYYYYYYYYYYyyyyyyy...............",
"...............yyyyyywwwwwYYYYYYYYYYYYYYYYYYyyyyyy..............",
"..............yyyyyywwwwwwYYYYYYYYYYYYYYYYYYYyyyyyy.............",
".............yyyyywwwwwwwwYYYYYYYYYYYYYYYYYYYYYyyyyy............",
"............yyyyywwwwwwwwwYYYYYYYYYYYYYYYYYYYYYYyyyyy...........",
"...........yyyyywwwwwwwwwwYYYYYYYYYYYYYYYYYYYYYYYyyyyy..........",
"...........yyyywwwwwwwwwwwYYYYYYYYYYYYYYYYYYYYYYYYyyyy..........",
"..........yyyyywwwwwwwwwwwYYYYYYYYYYYYYYYYYYYYYYYYyyyyy.........",
".........yyyyywwwwwwwwwwwwYYYYYYYYYYYYYYYYYYYYYYYYYyyyyy........",
".........yyyywwwwwwwwwwwwwYYYYYYYYYYYYYYYYYYYYYYYYYYyyyy........",
".........yyyywwwwwwwwwwwwwYYYYYYYYYYYYYYYYYYYYYYYYYYyyyy........",
"........yyyywwwwwwwwwwwwwwYYYYYYYYYYYYYYYYYYYYYYYYYYYyyyy.......",
"........yyyywwwwwwwwwwwwwwYYYYYYYYYYYYYYYYYYYYYYYYYYYyyyy.......",
".......yyyyywwwwwwwwwwwwwwYYYYYYYYYYYYYYYYYYYYYYYYYYYyyyyy......",
".......yyyywwwwwwwwwwwwwwwYYYYYYYYYYYYYYYYYYYYYYYYYYYYyyyy......",
".......yyyywwwwwwwwwwwwwwwYYYYYYYYYYYYYYYYYYYYYYYYYYYYyyyy......",
".......yyyywwwwwwwwwwwwwwwYYYYYYYYYYYYYYYYYYYYYYYYYYYYyyyy......",
".......yyyywwwwwwwwwwwwwwwYYYYYYYYYYYYYYYYYYYYYYYYYYYYyyyy......",
".......yyyywwwwwwwwwwwwwwwYYYYYYYYYYYYYYYYYYYYYYYYYYYYyyyy......",
".......yyywwwwwwwwwwwwwwwwYYYYYYYYYYYYYYYYYYYYYYYYYYYYYyyy......",
"......yyyyYYYYYYYYYYYYYYYYYYYYYYYYYYYYYYYYYYYYYYYYYYYYYyyyy.....",
".......yyyYYYYYYYYYYYYYYYYYYYYYYYYYYYYYYYYYYYYYYYYYYYYYyyy......",
".......yyyyYYYYYYYYYYYYYYYYYYYYYYYYYYYYYYYYYYYYYYYYYYYyyyy......",
".......yyyyYYYYYYYYYYYYYYYYYYYYYYYYYYYYYYYYYYYYYYYYYYYyyyy......",
".......yyyyYYYYYYYYYYYYYYYYYYYYYYYYYYYYYYYYYYYYYYYYYYYyyyy......",
".......yyyyYYYYYYYYYYYYYYYYYYYYYYYYYYYYYYYYYYYYYYYYYYYyyyy......",
".......yyyyYYYYYYYYYYYYYYYYYYYYYYYYYYYYYYYYYYYYYYYYYYYyyyy......",
".......yyyyyYYYYYYYYYYYYYYYYYYYYYYYYYYYYYYYYYYYYYYYYYyyyyy......",
"........yyyyYYYYYYYYYYYYYYYYYYYYYYYYYYYYYYYYYYYYYYYYYyyyy.......",
"........yyyyYYYYYYYYYYYYYYYYYYYYYYYYYYYYYYYYYYYYYYYYYyyyy.......",
".........yyyyYYYYYYYYYYYYYYYYYYYYYYYYYYYYYYYYYYYYYYYyyyy........",
".........yyyyYYYYYYYYYYYYYYYYYYYYYYYYYYYYYYYYYYYYYYYyyyy........",
".........yyyyyYYYYYYYYYYYYYYYYYYYYYYYYYYYYYYYYYYYYYyyyyy........",
"..........yyyyyYYYYYYYYYYYYYYYYYYYYYYYYYYYYYYYYYYYyyyyy.........",
"...........yyyyYYYYYYYYYYYYYYYYYYYYYYYYYYYYYYYYYYYyyyy..........",
"...........yyyyyYYYYYYYYYYYYYYYYYYYYYYYYYYYYYYYYYyyyyy..........",
"............yyyyyYYYYYYYYYYYYYYYYYYYYYYYYYYYYYYYyyyyy...........",
".............yyyyyYYYYYYYYYYYYYYYYYYYYYYYYYYYYYyyyyy............",
"..............yyyyyyYYYYYYYYYYYYYYYYYYYYYYYYYyyyyyy.............",
"...............yyyyyyYYYYYYYYYYYYYYYYYYYYYYYyyyyyy..............",
"................yyyyyyyYYYYYYYYYYYYYYYYYYYyyyyyyy...............",
".................yyyyyyyyyYYYYYYYYYYYYYyyyyyyyyy................",
"...................yyyyyyyyyyyyYYYyyyyyyyyyyyy..................",
"....................yyyyyyyyyyyyyyyyyyyyyyyyy...................",
".......................yyyyyyyyyyyyyyyyyyy......................",
".........................yyyyyyyyyyyyyyy........................",
"................................y...............................",
"................................................................",
"................................................................",
"................................................................",
"................................................................",
"................................................................",
};
