/* XPM */
static char *Coin3[] = {
"64 64 4 1",
". c #FF00FF",
"Y c #FFD24A",
"y c #B8860B",
"w c #FFF3B0",
"................................................................",
"................................................................",
"................................................................",
"................................................................",
"................................................................",
"................................................................",
"................................y...............................",
"...............................yyy..............................",
"..............................yyyyy.............................",
".............................yyyyyyy............................",
".............................yyyYyyy............................",
"............................yyyYYYyyy...........................",
"............................yywYYYYyy...........................",
"............................ywwYYYYYy...........................",
"...........................yywwYYYYYyy..........................",
"...........................yywwYYYYYyy..........................",
"...........................ywwwYYYYYYy..........................",
"...........................ywwwYYYYYYy..........................",
"..........................yywwwYYYYYYyy.........................",
"..........................yywwwYYYYYYyy.........................",
"..........................ywwwwYYYYYYYy.........................",
"..........................ywwwwYYYYYYYy.........................",
"..........................ywwwwYYYYYYYy.........................",
"..........................ywwwwYYYYYYYy.........................",
"..........................ywwwwYYYYYYYy.........................",
".........................yywwwwYYYYYYYyy........................",
".........................yywwwwYYYYYYYyy........................",
".........................ywwwwwYYYYYYYYy........................",
".........................ywwwwwYYYYYYYYy........................",
".........................ywwwwwYYYYYYYYy........................",
".........................ywwwwwYYYYYYYYy........................",
".........................ywwwwwYYYYYYYYy........................",
".........................yYYYYYYYYYYYYYy........................",
".........................yYYYYYYYYYYYYYy........................",
".........................yYYYYYYYYYYYYYy........................",
".........................yYYYYYYYYYYYYYy........................",
".........................yYYYYYYYYYYYYYy........................",
".........................yYYYYYYYYYYYYYy........................",
".........................yyYYYYYYYYYYYyy........................",
".........................yyYYYYYYYYYYYyy........................",
"..........................yYYYYYYYYYYYy.........................",
"..........................yYYYYYYYYYYYy.........................",
"..........................yYYYYYYYYYYYy.........................",
"..........................yYYYYYYYYYYYy.........................",
"..........................yYYYYYYYYYYYy.........................",
"..........................yyYYYYYYYYYyy.........................",
"..........................yyYYYYYYYYYyy.........................",
"...........................yYYYYYYYYYy..........................",
"...........................yYYYYYYYYYy..........................",
"...........................yyYYYYYYYyy..........................",
"...........................yyYYYYYYYyy..........................",
"............................yYYYYYYYy...........................",
"............................yyYYYYYyy...........................",
"............................yyyYYYyyy...........................",
".............................yyyYyyy............................",
".............................yyyyyyy............................",
"..............................yyyyy.............................",
"...............................yyy..............................",
"................................y...............................",
"................................................................",
"................................................................",
"................................................................",
"................................................................",
"................................................................",
};
