/* XPM */
static char *Coin2[] = {
"64 64 4 1",
". c #FF00FF",
"Y c #FFD24A",
"y c #B8860B",
"w c #FFF3B0",
"................................................................",
"................................................................",
"................................................................",
"................................................................",
"................................................................",
"................................................................",
"................................y...............................",
"............................yyyyyyyyy...........................",
"..........................yyyyyyyyyyyyy.........................",
".........................yyyyyyyyyyyyyyy........................",
"........................yyyyyyyYYYyyyyyyy.......................",
".......................yyyyyYYYYYYYYYyyyyy......................",
"......................yyyyywYYYYYYYYYYyyyyy.....................",
".....................yyyyywwYYYYYYYYYYYyyyyy....................",
".....................yyyywwwYYYYYYYYYYYYyyyy....................",
"....................yyyywwwwYYYYYYYYYYYYYyyyy...................",
"....................yyywwwwwYYYYYYYYYYYYYYyyy...................",
"...................yyywwwwwwYYYYYYYYYYYYYYYyyy..................",
"...................yyywwwwwwYYYYYYYYYYYYYYYyyy..................",
"...................yywwwwwwwYYYYYYYYYYYYYYYYyy..................",
"..................yyywwwwwwwYYYYYYYYYYYYYYYYyyy.................",
"..................yyywwwwwwwYYYYYYYYYYYYYYYYyyy.................",
"..................yywwwwwwwwYYYYYYYYYYYYYYYYYyy.................",
".................yyywwwwwwwwYYYYYYYYYYYYYYYYYyyy................",
".................yyywwwwwwwwYYYYYYYYYYYYYYYYYyyy................",
".................yyywwwwwwwwYYYYYYYYYYYYYYYYYyyy................",
".................yywwwwwwwwwYYYYYYYYYYYYYYYYYYyy................",
".................yywwwwwwwwwYYYYYYYYYYYYYYYYYYyy................",
".................yywwwwwwwwwYYYYYYYYYYYYYYYYYYyy................",
"................yyywwwwwwwwwYYYYYYYYYYYYYYYYYYyyy...............",
"................yyywwwwwwwwwYYYYYYYYYYYYYYYYYYyyy...............",
"................yyywwwwwwwwwYYYYYYYYYYYYYYYYYYyyy...............",
"................yyyYYYYYYYYYYYYYYYYYYYYYYYYYYYyyy...............",
"................yyyYYYYYYYYYYYYYYYYYYYYYYYYYYYyyy...............",
"................yyyYYYYYYYYYYYYYYYYYYYYYYYYYYYyyy...............",
"................yyyYYYYYYYYYYYYYYYYYYYYYYYYYYYyyy...............",
".................yyYYYYYYYYYYYYYYYYYYYYYYYYYYYyy................",
".................yyYYYYYYYYYYYYYYYYYYYYYYYYYYYyy................",
".................yyYYYYYYYYYYYYYYYYYYYYYYYYYYYyy................",
".................yyyYYYYYYYYYYYYYYYYYYYYYYYYYyyy................",
".................yyyYYYYYYYYYYYYYYYYYYYYYYYYYyyy................",
".................yyyYYYYYYYYYYYYYYYYYYYYYYYYYyyy................",
"..................yyYYYYYYYYYYYYYYYYYYYYYYYYYyy.................",
"..................yyyYYYYYYYYYYYYYYYYYYYYYYYyyy.................",
"..................yyyYYYYYYYYYYYYYYYYYYYYYYYyyy.................",
"...................yyYYYYYYYYYYYYYYYYYYYYYYYyy..................",
"...................yyyYYYYYYYYYYYYYYYYYYYYYyyy..................",
"...................yyyYYYYYYYYYYYYYYYYYYYYYyyy..................",
"....................yyyYYYYYYYYYYYYYYYYYYYyyy...................",
"....................yyyyYYYYYYYYYYYYYYYYYyyyy...................",
".....................yyyyYYYYYYYYYYYYYYYyyyy....................",
".....................yyyyyYYYYYYYYYYYYYyyyyy....................",
"......................yyyyyYYYYYYYYYYYyyyyy.....................",
".......................yyyyyYYYYYYYYYyyyyy......................",
"........................yyyyyyyYYYyyyyyyy.......................",
".........................yyyyyyyyyyyyyyy........................",
"..........................yyyyyyyyyyyyy.........................",
"............................yyyyyyyyy...........................",
"................................y...............................",
"................................................................",
"................................................................",
"................................................................",
"................................................................",
"................................................................",
};
